X:170
T: SUESSE HEILIGE NATUR LASS MICH GEHN
N: F0306
O: Europa, Mitteleuropa, Deutschland
R: Jugend - Lied, Belehrung, Natur
M: 2/4
L: 1/16
K: Eb
G3A | E2E2DEFG | F2E2
B2G2 | B2G2FGAB | A2G2
edcB | A2G2c2BA | G2F2
BGE2 | cAF2E2DF | F2E2

@@@ Tune index: 5601
